X: 1077
T: The Onehorned Cow
R:double jig
N:"collected by J.O'Neill"
B:O'Neill's 1077
Z:Transcribed by henrik.norbeck@mailbox.swipnet.se
M:6/8
L:1/8
K:G
Bdd gdd|edd gdc|Bdd gdd|edc BcA|
Bdd gdd|edc gdc|Bdd gfg|edB TA2G:|
Bdd ecc|dBB ecc|Bdd ece|dBG TA2G|
Bdd ecc|dBB ecc|Bdd gfg|edB TA2G:|


